app/assets/images/icons/active/paper-airplane.svg

<?xml version="1.0" encoding="UTF-8" standalone="no"?>
<svg width="32px" height="232px" viewBox="0 0 32 232" version="1.1" xmlns="http://www.w3.org/2000/svg" xmlns:xlink="http://www.w3.org/1999/xlink" xmlns:sketch="http://www.bohemiancoding.com/sketch/ns">
    <title>paper-airplane</title>
    <description>Created with Sketch (http://www.bohemiancoding.com/sketch)</description>
    <defs></defs>
    <g id="Actions" stroke="none" stroke-width="1" fill="none" fill-rule="evenodd" sketch:type="MSPage">
        <path d="M31.9140237,123.527 C32.1340237,123.049 31.9170237,122.823 31.4300237,123.027 L0.383023729,136.036 C-0.102976271,136.239 -0.129976271,136.628 0.322023729,136.897 L6.05402373,140.322 C6.50602373,140.593 6.87702373,141.245 6.87702373,141.772 L6.87702373,148.718 C6.87702373,149.245 7.22302373,149.419 7.64702373,149.105 L12.9740237,145.157 C13.3970237,144.844 14.1240237,144.792 14.5880237,145.041 L19.6860237,147.784 C20.1500237,148.034 20.7100237,147.847 20.9300237,147.368 L31.9140237,123.527 L31.9140237,123.527 L31.9140237,123.527 L31.9140237,123.527 Z M8.02602373,147.329 L8.45802373,140.047 L30.8620237,124.095 L10.5650237,141.819 L8.02602373,147.329 L8.02602373,147.329 Z M8.02602373,147.329" id="paper-airplane--lp-blue" fill="#206FAC" sketch:type="MSShapeGroup"></path>
        <path d="M31.9140237,83.527 C32.1340237,83.049 31.9170237,82.823 31.4300237,83.027 L0.383023729,96.036 C-0.102976271,96.239 -0.129976271,96.628 0.322023729,96.897 L6.05402373,100.322 C6.50602373,100.593 6.87702373,101.245 6.87702373,101.772 L6.87702373,108.718 C6.87702373,109.245 7.22302373,109.419 7.64702373,109.105 L12.9740237,105.157 C13.3970237,104.844 14.1240237,104.792 14.5880237,105.041 L19.6860237,107.784 C20.1500237,108.034 20.7100237,107.847 20.9300237,107.368 L31.9140237,83.527 L31.9140237,83.527 L31.9140237,83.527 L31.9140237,83.527 Z M8.02602373,107.329 L8.45802373,100.047 L30.8620237,84.095 L10.5650237,101.819 L8.02602373,107.329 L8.02602373,107.329 Z M8.02602373,107.329" id="paper-airplane--white" fill="#FFFFFF" sketch:type="MSShapeGroup"></path>
        <path d="M31.9140237,43.527 C32.1340237,43.049 31.9170237,42.823 31.4300237,43.027 L0.383023729,56.036 C-0.102976271,56.239 -0.129976271,56.628 0.322023729,56.897 L6.05402373,60.322 C6.50602373,60.593 6.87702373,61.245 6.87702373,61.772 L6.87702373,68.718 C6.87702373,69.245 7.22302373,69.419 7.64702373,69.105 L12.9740237,65.157 C13.3970237,64.844 14.1240237,64.792 14.5880237,65.041 L19.6860237,67.784 C20.1500237,68.034 20.7100237,67.847 20.9300237,67.368 L31.9140237,43.527 L31.9140237,43.527 L31.9140237,43.527 L31.9140237,43.527 Z M8.02602373,67.329 L8.45802373,60.047 L30.8620237,44.095 L10.5650237,61.819 L8.02602373,67.329 L8.02602373,67.329 Z M8.02602373,67.329" id="paper-airplane--body-grey" fill="#67737B" sketch:type="MSShapeGroup"></path>
        <path d="M31.9140237,3.527 C32.1340237,3.049 31.9170237,2.823 31.4300237,3.027 L0.383023729,16.036 C-0.102976271,16.239 -0.129976271,16.628 0.322023729,16.897 L6.05402373,20.322 C6.50602373,20.593 6.87702373,21.245 6.87702373,21.772 L6.87702373,28.718 C6.87702373,29.245 7.22302373,29.419 7.64702373,29.105 L12.9740237,25.157 C13.3970237,24.844 14.1240237,24.792 14.5880237,25.041 L19.6860237,27.784 C20.1500237,28.034 20.7100237,27.847 20.9300237,27.368 L31.9140237,3.527 L31.9140237,3.527 L31.9140237,3.527 L31.9140237,3.527 Z M8.02602373,27.329 L8.45802373,20.047 L30.8620237,4.095 L10.5650237,21.819 L8.02602373,27.329 L8.02602373,27.329 Z M8.02602373,27.329" id="paper-airplane--title-grey" fill="#3A434E" sketch:type="MSShapeGroup"></path>
    </g>
</svg>

<svg width="32" height="232" viewBox="0 0 32 232" xmlns="http://www.w3.org/2000/svg" xmlns:sketch="http://www.bohemiancoding.com/sketch/ns"><title>paper-airplane</title><g sketch:type="MSPage" fill="none"><path d="M31.914 123.527c.22-.478.003-.704-.484-.5l-31.047 13.009c-.486.203-.513.592-.061.861l5.732 3.425c.452.271.823.923.823 1.45v6.946c0 .527.346.701.77.387l5.327-3.948c.423-.313 1.15-.365 1.614-.116l5.098 2.743c.464.25 1.024.063 1.244-.416l10.984-23.841zm-23.888 23.802l.432-7.282 22.404-15.952-20.297 17.724-2.539 5.51zm0 0" fill="#206FAC" sketch:type="MSShapeGroup"/><path d="M31.914 83.527c.22-.478.003-.704-.484-.5l-31.047 13.009c-.486.203-.513.592-.061.861l5.732 3.425c.452.271.823.923.823 1.45v6.946c0 .527.346.701.77.387l5.327-3.948c.423-.313 1.15-.365 1.614-.116l5.098 2.743c.464.25 1.024.063 1.244-.416l10.984-23.841zm-23.888 23.802l.432-7.282 22.404-15.952-20.297 17.724-2.539 5.51zm0 0" fill="#fff" sketch:type="MSShapeGroup"/><path d="M31.914 43.527c.22-.478.003-.704-.484-.5l-31.047 13.009c-.486.203-.513.592-.061.861l5.732 3.425c.452.271.823.923.823 1.45v6.946c0 .527.346.701.77.387l5.327-3.948c.423-.313 1.15-.365 1.614-.116l5.098 2.743c.464.25 1.024.063 1.244-.416l10.984-23.841zm-23.888 23.802l.432-7.282 22.404-15.952-20.297 17.724-2.539 5.51zm0 0" fill="#67737B" sketch:type="MSShapeGroup"/><path d="M31.914 3.527c.22-.478.003-.704-.484-.5l-31.047 13.009c-.486.203-.513.592-.061.861l5.732 3.425c.452.271.823.923.823 1.45v6.946c0 .527.346.701.77.387l5.327-3.948c.423-.313 1.15-.365 1.614-.116l5.098 2.743c.464.25 1.024.063 1.244-.416l10.984-23.841zm-23.888 23.802l.432-7.282 22.404-15.952-20.297 17.724-2.539 5.51zm0 0" fill="#3A434E" sketch:type="MSShapeGroup"/></g></svg>
